img/Logo.svg

<svg width="177" height="42" viewBox="0 0 177 42" fill="none" xmlns="http://www.w3.org/2000/svg">
<path d="M23.0915 0C23.0915 0 26.802 9.07726 10.8998 15.1744C2.25892 18.4865 -4.37778 26.9758 3.54643 40.0895C4.20269 34.2279 7.01666 21.3037 19.1166 18.3546C19.1166 18.3546 7.85471 22.5657 6.85987 41.6277C12.6467 42.4402 26.2185 42.9861 30.2479 31.2085C35.5688 15.6476 23.0915 0 23.0915 0Z" fill="#8DCE97"/>
<path d="M6.86512 41.5484C19.1501 36.6455 28.0889 25.16 29.3226 11.4489C26.8111 4.67443 23.0915 0 23.0915 0C23.0915 0 26.802 9.07726 10.8998 15.1744C2.25892 18.4865 -4.37778 26.9758 3.54643 40.0895C4.20269 34.2279 7.01666 21.3037 19.1166 18.3546C19.1159 18.3546 7.88753 22.5553 6.86512 41.5484Z" fill="#8DCE97"/>
<path d="M2.32059 15.4771C2.95487 15.4771 3.46905 14.9629 3.46905 14.3286C3.46905 13.6943 2.95487 13.1802 2.32059 13.1802C1.68631 13.1802 1.17212 13.6943 1.17212 14.3286C1.17212 14.9629 1.68631 15.4771 2.32059 15.4771Z" fill="#8DCE97"/>
<path d="M5.92991 14.0005C6.38295 14.0005 6.75021 13.6332 6.75021 13.1802C6.75021 12.7271 6.38295 12.3599 5.92991 12.3599C5.47688 12.3599 5.10962 12.7271 5.10962 13.1802C5.10962 13.6332 5.47688 14.0005 5.92991 14.0005Z" fill="#8DCE97"/>
<path d="M5.19161 7.43791C6.32421 7.43791 7.24236 6.51976 7.24236 5.38717C7.24236 4.25458 6.32421 3.33643 5.19161 3.33643C4.05902 3.33643 3.14087 4.25458 3.14087 5.38717C3.14087 6.51976 4.05902 7.43791 5.19161 7.43791Z" fill="#8DCE97"/>
<path d="M11.508 10.7192C11.8705 10.7192 12.1643 10.4254 12.1643 10.063C12.1643 9.70055 11.8705 9.40674 11.508 9.40674C11.1456 9.40674 10.8518 9.70055 10.8518 10.063C10.8518 10.4254 11.1456 10.7192 11.508 10.7192Z" fill="#8DCE97"/>
<path d="M17.0046 8.25827C18.0466 8.25827 18.8913 7.41356 18.8913 6.37157C18.8913 5.32957 18.0466 4.48486 17.0046 4.48486C15.9626 4.48486 15.1179 5.32957 15.1179 6.37157C15.1179 7.41356 15.9626 8.25827 17.0046 8.25827Z" fill="#8DCE97"/>
<g opacity="0.8">
<path opacity="0.8" d="M50.7156 37.8958C48.8751 37.8958 47.2116 37.4962 45.7251 36.6969C44.2562 35.8977 43.0971 34.7943 42.2476 33.3869C41.4159 31.9621 41 30.3723 41 28.6174C41 26.8625 41.4159 25.2813 42.2476 23.8739C43.0971 22.4491 44.2651 21.3371 45.7516 20.5378C47.2382 19.7386 48.9017 19.3389 50.7422 19.3389C52.1225 19.3389 53.3967 19.5648 54.5647 20.0166C55.7327 20.4683 56.7237 21.1286 57.5378 21.9974L56.2902 23.2223C54.839 21.7802 53.0074 21.0591 50.7953 21.0591C49.3264 21.0591 47.9903 21.3892 46.7869 22.0495C45.5835 22.7097 44.6367 23.6133 43.9465 24.76C43.2741 25.9068 42.9378 27.1926 42.9378 28.6174C42.9378 30.0422 43.2741 31.3279 43.9465 32.4747C44.6367 33.6215 45.5835 34.525 46.7869 35.1853C47.9903 35.8455 49.3264 36.1757 50.7953 36.1757C53.0251 36.1757 54.8567 35.4459 56.2902 33.9864L57.5378 35.2113C56.7237 36.0801 55.7239 36.7491 54.5382 37.2182C53.3702 37.67 52.096 37.8958 50.7156 37.8958Z" fill="#213E26"/>
<path opacity="0.8" d="M66.0042 23.9258C67.827 23.9258 69.2251 24.3776 70.1984 25.2811C71.1717 26.1673 71.6584 27.4878 71.6584 29.2427V37.7393H69.8533V35.6021C69.4286 36.3145 68.8003 36.8705 67.9686 37.2701C67.1545 37.6698 66.1812 37.8696 65.0486 37.8696C63.4912 37.8696 62.2525 37.5047 61.3322 36.7749C60.412 36.0452 59.9519 35.0808 59.9519 33.8819C59.9519 32.7178 60.3766 31.7795 61.226 31.0671C62.0932 30.3547 63.4647 29.9985 65.3406 29.9985H69.7737V29.1645C69.7737 27.983 69.4374 27.0881 68.7649 26.48C68.0925 25.8545 67.1103 25.5417 65.8184 25.5417C64.9336 25.5417 64.0841 25.6894 63.27 25.9848C62.456 26.2628 61.7569 26.6538 61.1729 27.1577L60.3235 25.7763C61.0314 25.1855 61.8808 24.7338 62.8719 24.421C63.8629 24.0909 64.907 23.9258 66.0042 23.9258ZM65.3406 36.4101C66.4024 36.4101 67.3138 36.1755 68.0748 35.7063C68.8357 35.2198 69.402 34.5248 69.7737 33.6213V31.3799H65.3937C63.0046 31.3799 61.81 32.1965 61.81 33.8298C61.81 34.6291 62.1197 35.2633 62.7391 35.7324C63.3585 36.1842 64.2257 36.4101 65.3406 36.4101Z" fill="#213E26"/>
<path opacity="0.8" d="M80.5203 37.8696C79.3877 37.8696 78.2993 37.7132 77.2552 37.4004C76.2288 37.0703 75.4236 36.662 74.8396 36.1755L75.689 34.7159C76.273 35.1677 77.0075 35.5413 77.8923 35.8367C78.7772 36.1147 79.6974 36.2537 80.653 36.2537C81.9272 36.2537 82.8651 36.0625 83.4668 35.6803C84.0862 35.2806 84.3959 34.7246 84.3959 34.0122C84.3959 33.5084 84.2278 33.1174 83.8916 32.8394C83.5553 32.544 83.1306 32.3268 82.6174 32.1878C82.1042 32.0314 81.4228 31.8838 80.5734 31.7448C79.4408 31.5363 78.5294 31.3277 77.8392 31.1192C77.149 30.8934 76.5562 30.5198 76.0607 29.9985C75.5829 29.4773 75.3439 28.7562 75.3439 27.8353C75.3439 26.6885 75.8306 25.7502 76.8039 25.0205C77.7773 24.2907 79.1311 23.9258 80.8654 23.9258C81.7679 23.9258 82.6705 24.0475 83.573 24.2907C84.4756 24.5166 85.2188 24.8207 85.8028 25.2029L84.9799 26.6885C83.8296 25.9066 82.4581 25.5157 80.8654 25.5157C79.662 25.5157 78.7506 25.7242 78.1312 26.1412C77.5295 26.5582 77.2287 27.1055 77.2287 27.7832C77.2287 28.3044 77.3968 28.7214 77.733 29.0342C78.087 29.347 78.5205 29.5815 79.0338 29.7379C79.547 29.8769 80.2548 30.0246 81.1574 30.181C82.2723 30.3895 83.166 30.598 83.8385 30.8065C84.511 31.015 85.0861 31.3712 85.5639 31.8751C86.0417 32.379 86.2807 33.074 86.2807 33.9601C86.2807 35.159 85.7674 36.1147 84.741 36.8271C83.7323 37.5221 82.3254 37.8696 80.5203 37.8696Z" fill="#213E26"/>
<path opacity="0.8" d="M94.6493 23.9258C96.4721 23.9258 97.8701 24.3776 98.8435 25.2811C99.8168 26.1673 100.303 27.4878 100.303 29.2427V37.7393H98.4984V35.6021C98.0737 36.3145 97.4454 36.8705 96.6137 37.2701C95.7996 37.6698 94.8263 37.8696 93.6937 37.8696C92.1363 37.8696 90.8976 37.5047 89.9773 36.7749C89.0571 36.0452 88.5969 35.0808 88.5969 33.8819C88.5969 32.7178 89.0217 31.7795 89.8711 31.0671C90.7383 30.3547 92.1098 29.9985 93.9857 29.9985H98.4187V29.1645C98.4187 27.983 98.0825 27.0881 97.41 26.48C96.7375 25.8545 95.7554 25.5417 94.4635 25.5417C93.5786 25.5417 92.7292 25.6894 91.9151 25.9848C91.1011 26.2628 90.402 26.6538 89.818 27.1577L88.9686 25.7763C89.6765 25.1855 90.5259 24.7338 91.5169 24.421C92.508 24.0909 93.5521 23.9258 94.6493 23.9258ZM93.9857 36.4101C95.0475 36.4101 95.9589 36.1755 96.7198 35.7063C97.4808 35.2198 98.0471 34.5248 98.4187 33.6213V31.3799H94.0388C91.6497 31.3799 90.4551 32.1965 90.4551 33.8298C90.4551 34.6291 90.7648 35.2633 91.3842 35.7324C92.0036 36.1842 92.8708 36.4101 93.9857 36.4101Z" fill="#213E26"/>
<path opacity="0.8" d="M113.652 37.7395L119.226 24.2909C119.571 23.4569 119.81 22.7271 119.81 22.1277C119.81 20.8766 118.987 19.2607 116.784 19.2607C115.191 19.2607 113.837 20.1729 113.837 21.8149C113.837 23.2223 115.005 24.3691 116.492 24.3691C118.058 24.3691 118.775 23.3005 118.775 22.1798C118.775 21.1373 118.191 20.5899 117.421 20.3293C117.262 20.2772 117.209 20.199 117.209 20.0687C117.209 19.9384 117.315 19.8341 117.448 19.8341C117.527 19.8341 117.633 19.8602 117.74 19.8862C118.509 20.0947 119.306 20.8766 119.306 22.1537C119.306 22.9878 118.775 24.1606 118.324 25.2031L115.085 32.8135H114.687L109.856 19.9123H112.006V19.4953H102.582V19.9123H104.122L110.148 35.8369C110.599 37.0358 111.263 37.7395 112.563 37.7395H113.652Z" fill="#213E26"/>
<path opacity="0.8" d="M128.799 37.3744C126.516 37.3744 125.985 35.4457 125.985 32.5527H127.737C130.817 32.5527 133.577 31.7187 133.577 28.9821C133.577 26.0109 130.551 25.0205 127.498 25.0205C123.278 25.0205 120.597 27.4443 120.597 31.5102C120.597 35.8106 123.357 37.9999 128.003 37.9999C131.162 37.9999 133.126 36.2537 133.63 33.4649L133.153 33.3867L133.1 33.6213C132.622 35.9149 130.896 37.3744 128.799 37.3744ZM125.959 30.207C125.959 26.1673 126.516 25.4896 127.498 25.4896C128.215 25.4896 128.746 26.1933 128.746 28.956C128.746 30.8586 128.295 32.0836 126.622 32.0836H125.959V30.207Z" fill="#213E26"/>
<path opacity="0.8" d="M141.199 27.1316V25.0205C139.421 25.3854 137.722 25.5157 135.89 25.5157H134.298V25.9327H136.182V37.0877H134.536V37.5047H143.084V37.0877H141.093V31.9011C141.093 27.7832 142.128 25.4896 144.358 25.4896C145.34 25.4896 145.924 26.0109 146.163 26.3236C146.27 26.48 146.323 26.5843 146.323 26.7146C146.323 26.871 146.216 26.9491 146.084 26.9491C145.898 26.9491 145.818 26.7406 145.659 26.5582C145.5 26.3758 145.102 26.0369 144.491 26.0369C143.456 26.0369 142.739 26.8449 142.739 27.8874C142.739 29.0603 143.668 29.8421 144.81 29.8421C146.243 29.8421 147.066 28.7475 147.066 27.4965C147.066 26.1412 145.924 25.0205 144.332 25.0205C142.898 25.0205 141.863 25.9327 141.332 27.1316H141.199Z" fill="#213E26"/>
<path opacity="0.8" d="M161.415 19C159.637 19.3649 157.938 19.4952 156.106 19.4952H154.514V19.9122H156.398V26.8711H156.266C155.655 25.6461 154.567 25.0206 152.921 25.0206C149.098 25.0206 147.744 27.7572 147.744 31.5103C147.744 35.0027 149.258 38 152.549 38C154.407 38 155.575 37.4005 156.266 35.7064H156.398V37.5048H163.061V37.0878H161.415V19ZM156.504 31.5103C156.504 33.882 155.867 36.8272 154.487 36.8272C153.292 36.8272 153.107 34.4554 153.107 31.5103C153.107 27.8093 153.452 25.9849 154.487 25.9849C155.469 25.9849 156.504 27.5487 156.504 30.8066V31.5103Z" fill="#213E26"/>
<path opacity="0.8" d="M172.169 37.3744C169.886 37.3744 169.355 35.4457 169.355 32.5527H171.107C174.186 32.5527 176.947 31.7187 176.947 28.9821C176.947 26.0109 173.921 25.0205 170.868 25.0205C166.647 25.0205 163.966 27.4443 163.966 31.5102C163.966 35.8106 166.727 37.9999 171.372 37.9999C174.531 37.9999 176.496 36.2537 177 33.4649L176.522 33.3867L176.469 33.6213C175.991 35.9149 174.266 37.3744 172.169 37.3744ZM169.328 30.207C169.328 26.1673 169.886 25.4896 170.868 25.4896C171.585 25.4896 172.116 26.1933 172.116 28.956C172.116 30.8586 171.664 32.0836 169.992 32.0836H169.328V30.207Z" fill="#213E26"/>
</g>
</svg>

<svg width="177" height="42" fill="none" xmlns="http://www.w3.org/2000/svg"><path d="M23.091 0S26.802 9.077 10.9 15.174C2.259 18.487-4.378 26.976 3.546 40.09c.657-5.862 3.47-18.786 15.57-21.735 0 0-11.261 4.21-12.256 23.273 5.787.812 19.358 1.358 23.388-10.42C35.568 15.649 23.09 0 23.09 0z" fill="#8DCE97"/><path d="M6.865 41.548c12.285-4.903 21.224-16.388 22.458-30.1C26.81 4.675 23.09 0 23.09 0S26.802 9.077 10.9 15.174C2.259 18.487-4.378 26.976 3.546 40.09c.657-5.862 3.47-18.786 15.57-21.735 0 0-11.228 4.2-12.25 23.193zM2.32 15.477a1.148 1.148 0 100-2.297 1.148 1.148 0 000 2.297zM5.93 14a.82.82 0 100-1.64.82.82 0 000 1.64zM5.192 7.438a2.05 2.05 0 100-4.102 2.05 2.05 0 000 4.102z" fill="#8DCE97"/><path d="M11.508 10.72a.656.656 0 100-1.313.656.656 0 000 1.312zM17.005 8.258a1.887 1.887 0 100-3.773 1.887 1.887 0 000 3.773z" fill="#8DCE97"/><g opacity=".8" fill="#213E26"><path opacity=".8" d="M50.716 37.896c-1.84 0-3.504-.4-4.99-1.2a9.018 9.018 0 01-3.478-3.31C41.416 31.963 41 30.373 41 28.618c0-1.755.416-3.336 1.248-4.743a8.912 8.912 0 013.504-3.336c1.486-.8 3.15-1.2 4.99-1.2 1.38 0 2.655.227 3.823.679a7.93 7.93 0 012.973 1.98l-1.248 1.225c-1.451-1.442-3.283-2.163-5.495-2.163-1.469 0-2.805.33-4.008.99a7.407 7.407 0 00-2.84 2.711c-.673 1.147-1.01 2.433-1.01 3.857 0 1.425.337 2.71 1.01 3.858a7.408 7.408 0 002.84 2.71c1.203.66 2.54.99 4.008.99 2.23 0 4.062-.73 5.495-2.189l1.248 1.225c-.814.87-1.814 1.538-3 2.007-1.168.452-2.442.678-3.822.678zM66.004 23.926c1.823 0 3.221.452 4.194 1.355.974.886 1.46 2.207 1.46 3.962v8.496h-1.805v-2.137c-.424.713-1.053 1.269-1.884 1.668-.814.4-1.788.6-2.92.6-1.558 0-2.797-.365-3.717-1.095-.92-.73-1.38-1.694-1.38-2.893 0-1.164.425-2.102 1.274-2.815.867-.712 2.239-1.069 4.115-1.069h4.433v-.834c0-1.181-.337-2.076-1.01-2.684-.671-.625-1.654-.938-2.946-.938-.884 0-1.734.147-2.548.443-.814.278-1.513.669-2.097 1.173l-.85-1.382c.708-.59 1.558-1.042 2.549-1.355a9.846 9.846 0 013.132-.495zm-.663 12.484c1.061 0 1.973-.234 2.734-.704.76-.486 1.327-1.181 1.699-2.085V31.38h-4.38c-2.39 0-3.584.817-3.584 2.45 0 .8.31 1.433.93 1.902.618.452 1.486.678 2.6.678zM80.52 37.87c-1.132 0-2.22-.157-3.265-.47-1.026-.33-1.831-.738-2.415-1.224l.849-1.46c.584.452 1.319.825 2.203 1.12a9.156 9.156 0 002.761.418c1.274 0 2.212-.191 2.814-.574.62-.4.929-.955.929-1.668 0-.504-.168-.895-.504-1.173-.337-.295-.761-.512-1.275-.651-.513-.157-1.194-.304-2.044-.443-1.132-.209-2.044-.417-2.734-.626A4.23 4.23 0 0176.061 30c-.478-.522-.717-1.243-.717-2.164 0-1.146.487-2.085 1.46-2.815s2.327-1.094 4.061-1.094c.903 0 1.806.122 2.708.365.903.226 1.646.53 2.23.912l-.823 1.486c-1.15-.782-2.522-1.173-4.115-1.173-1.203 0-2.114.208-2.734.625-.602.417-.902.965-.902 1.642 0 .521.168.938.504 1.251.354.313.787.547 1.3.704.514.139 1.222.287 2.124.443 1.115.209 2.009.417 2.681.625a3.949 3.949 0 011.726 1.07c.478.503.717 1.198.717 2.084 0 1.199-.514 2.155-1.54 2.867-1.009.695-2.416 1.043-4.22 1.043zM94.65 23.926c1.822 0 3.22.452 4.194 1.355.973.886 1.459 2.207 1.459 3.962v8.496h-1.805v-2.137c-.424.713-1.053 1.269-1.884 1.668-.814.4-1.788.6-2.92.6-1.558 0-2.796-.365-3.717-1.095-.92-.73-1.38-1.694-1.38-2.893 0-1.164.425-2.102 1.274-2.815.867-.712 2.239-1.069 4.115-1.069h4.433v-.834c0-1.181-.337-2.076-1.009-2.684-.672-.625-1.655-.938-2.947-.938-.884 0-1.734.147-2.548.443-.814.278-1.513.669-2.097 1.173l-.85-1.382c.709-.59 1.558-1.042 2.549-1.355a9.847 9.847 0 013.132-.495zm-.664 12.484c1.061 0 1.973-.234 2.734-.704.76-.486 1.327-1.181 1.699-2.085V31.38h-4.38c-2.39 0-3.584.817-3.584 2.45 0 .8.31 1.433.93 1.902.619.452 1.486.678 2.6.678zM113.652 37.74l5.574-13.45c.345-.833.584-1.563.584-2.162 0-1.251-.823-2.867-3.026-2.867-1.593 0-2.947.912-2.947 2.554 0 1.407 1.168 2.554 2.655 2.554 1.566 0 2.283-1.069 2.283-2.19 0-1.042-.584-1.59-1.354-1.85-.159-.052-.212-.13-.212-.26s.106-.235.239-.235c.079 0 .185.026.292.052.769.209 1.566.99 1.566 2.268 0 .834-.531 2.007-.982 3.05l-3.239 7.61h-.398l-4.831-12.902h2.15v-.417h-9.424v.417h1.54l6.026 15.925c.451 1.199 1.115 1.902 2.415 1.902h1.089zM128.799 37.374c-2.283 0-2.814-1.928-2.814-4.821h1.752c3.08 0 5.84-.834 5.84-3.57 0-2.972-3.026-3.963-6.079-3.963-4.22 0-6.901 2.424-6.901 6.49 0 4.3 2.76 6.49 7.406 6.49 3.159 0 5.123-1.746 5.627-4.535l-.477-.078-.053.234c-.478 2.294-2.204 3.753-4.301 3.753zm-2.84-7.167c0-4.04.557-4.717 1.539-4.717.717 0 1.248.703 1.248 3.466 0 1.903-.451 3.128-2.124 3.128h-.663v-1.877zM141.199 27.132V25.02c-1.778.365-3.477.496-5.309.496h-1.592v.417h1.884v11.155h-1.646v.417h8.548v-.417h-1.991V31.9c0-4.118 1.035-6.411 3.265-6.411.982 0 1.566.52 1.805.834.107.156.16.26.16.39 0 .157-.107.235-.239.235-.186 0-.266-.208-.425-.39a1.564 1.564 0 00-1.168-.522c-1.035 0-1.752.808-1.752 1.85 0 1.173.929 1.955 2.071 1.955 1.433 0 2.256-1.095 2.256-2.345 0-1.356-1.142-2.477-2.734-2.477-1.434 0-2.469.913-3 2.112h-.133zM161.415 19c-1.778.365-3.477.495-5.309.495h-1.592v.417h1.884v6.96h-.132c-.611-1.226-1.699-1.851-3.345-1.851-3.823 0-5.177 2.736-5.177 6.49 0 3.492 1.514 6.489 4.805 6.489 1.858 0 3.026-.6 3.717-2.294h.132v1.799h6.663v-.417h-1.646V19zm-4.911 12.51c0 2.372-.637 5.317-2.017 5.317-1.195 0-1.38-2.372-1.38-5.317 0-3.7.345-5.525 1.38-5.525.982 0 2.017 1.564 2.017 4.822v.703zM172.169 37.374c-2.283 0-2.814-1.928-2.814-4.821h1.752c3.079 0 5.84-.834 5.84-3.57 0-2.972-3.026-3.963-6.079-3.963-4.221 0-6.902 2.424-6.902 6.49 0 4.3 2.761 6.49 7.406 6.49 3.159 0 5.124-1.746 5.628-4.535l-.478-.078-.053.234c-.478 2.294-2.203 3.753-4.3 3.753zm-2.841-7.167c0-4.04.558-4.717 1.54-4.717.717 0 1.248.703 1.248 3.466 0 1.903-.452 3.128-2.124 3.128h-.664v-1.877z"/></g></svg>
